img/battery.svg

<?xml version="1.0" encoding="UTF-8"?>
<svg width="48px" height="25px" viewBox="0 0 48 25" version="1.1" xmlns="http://www.w3.org/2000/svg" xmlns:xlink="http://www.w3.org/1999/xlink">
    <!-- Generator: Sketch 51.2 (57519) - http://www.bohemiancoding.com/sketch -->
    <title>battery</title>
    <desc>Created with Sketch.</desc>
    <defs></defs>
    <g id="Events" stroke="none" stroke-width="1" fill="none" fill-rule="evenodd">
        <g id="Assets" transform="translate(-146.000000, -253.000000)">
            <g id="Icons-/-Battery" transform="translate(144.000000, 239.000000)">
                <g id="Icon" fill="#D8D8D8" fill-opacity="0">
                    <circle id="Oval" cx="26" cy="26" r="26"></circle>
                </g>
                <g id="010-battery" transform="translate(2.000000, 14.000000)" fill="#333333" fill-rule="nonzero">
                    <path d="M42.7368421,0 L10.2051809,0 C7.29975326,0.00328947368 4.94531253,2.35773032 4.94202305,5.26315789 L4.94202305,6.12952305 L3.15789474,6.12952305 C1.41447368,6.13157895 0.00205591579,7.54440789 2.84217094e-14,9.28741779 L2.84217094e-14,14.8178454 C0.00205591579,16.5608553 1.41447368,17.9736842 3.15789474,17.9757401 L4.94202305,17.9757401 L4.94202305,18.8421053 C4.94531253,21.7475328 7.29975326,24.1019737 10.2051809,24.1052632 L42.7368421,24.1052632 C45.6422697,24.1019737 47.9967105,21.7475328 48,18.8421053 L48,5.26315789 C47.9967105,2.35773032 45.6422697,0.00328947368 42.7368421,0 Z M3.15789474,15.8704769 C2.57689147,15.8696546 2.10608547,15.3988486 2.10526316,14.8178454 L2.10526316,9.28741779 C2.10608547,8.70641453 2.57689147,8.23560853 3.15789474,8.23478621 L4.94202305,8.23478621 L4.94202305,15.8704769 L3.15789474,15.8704769 Z M45.8947368,18.8421053 C45.8926809,20.5855263 44.4802632,21.9979441 42.7368421,22 L10.2051809,22 C8.46175989,21.9979441 7.04934211,20.5855263 7.04728621,18.8421053 L7.04728621,5.26315789 C7.04934211,3.51973684 8.46175989,2.10731905 10.2051809,2.10526316 L42.7368421,2.10526316 C44.4802632,2.10731905 45.8926809,3.51973684 45.8947368,5.26315789 L45.8947368,18.8421053 Z" id="Shape"></path>
                    <path d="M19.6085526,11 L17.7652138,11 L17.7652138,9.15666116 C17.7652138,8.57524674 17.2939967,8.10402958 16.7125822,8.10402958 C16.1311678,8.10402958 15.6599506,8.57524674 15.6599506,9.15666116 L15.6599506,11 L13.8166118,11 C13.2351974,11 12.7639802,11.4712171 12.7639802,12.0526316 C12.7639802,12.6340461 13.2351974,13.1052632 13.8166118,13.1052632 L15.6599506,13.1052632 L15.6599506,14.948602 C15.6599506,15.5300164 16.1311678,16.0012336 16.7125822,16.0012336 C17.2939967,16.0012336 17.7652138,15.5300164 17.7652138,14.948602 L17.7652138,13.1052632 L19.6085526,13.1052632 C20.1899672,13.1052632 20.6611842,12.6340461 20.6611842,12.0526316 C20.6611842,11.4712171 20.1899672,11 19.6085526,11 Z" id="Shape"></path>
                    <path d="M38.5612664,8.10402958 C37.979852,8.10402958 37.5086348,8.57524674 37.5086348,9.15666116 L37.5086348,14.948602 C37.5086348,15.5300164 37.979852,16.0012336 38.5612664,16.0012336 C39.1426809,16.0012336 39.613898,15.5300164 39.613898,14.948602 L39.613898,9.15666116 C39.613898,8.57524674 39.1426809,8.10402958 38.5612664,8.10402958 Z" id="Shape"></path>
                </g>
            </g>
        </g>
    </g>
</svg>

<svg xmlns="http://www.w3.org/2000/svg" viewBox="0 0 48 25"><g fill="none" fill-rule="evenodd"><circle cx="26" cy="26" r="26" fill="none" fill-opacity="0" transform="translate(-2 -14)"/><g fill="#333" fill-rule="nonzero"><path d="M42.7 0H10.2C7.3 0 5 2.4 5 5.3V6H3.2A3.2 3.2 0 000 9.3v5.5C0 16.6 1.4 18 3.2 18h1.7v.8c0 3 2.4 5.3 5.3 5.3h32.5c3 0 5.3-2.4 5.3-5.3V5.3c0-3-2.4-5.3-5.3-5.3zM3.2 15.9a1 1 0 01-1-1V9.2c0-.6.4-1 1-1h1.7v7.6H3.2zm42.7 3c0 1.7-1.4 3.1-3.2 3.1H10.2A3.2 3.2 0 017 18.8V5.3C7 3.5 8.5 2 10.2 2h32.5c1.8 0 3.2 1.4 3.2 3.2v13.5z"/><path d="M19.6 11h-1.8V9.2a1 1 0 10-2.1 0V11h-1.9a1 1 0 100 2.1h1.9V15a1 1 0 102 0v-1.8h2a1 1 0 100-2.1zM38.6 8.1a1 1 0 00-1 1V15a1 1 0 102 0V9.2c0-.6-.5-1.1-1-1.1z"/></g></g></svg>
